X:1
T:James Gibb editions
T:Magnificat VIII toni - Ravanello
T:#
%%score [ 1 2 3 ]
L:1/8
Q:1/4=72
M:none
K:Bb
V:1 treble nm="Soprano I"
V:2 treble nm="Soprano II"
V:3 treble nm="Alto I" snm="A"
V:1
"^Oreste Ravanello\n (1871-1938)""^Magnificat VIII toni, op.66/27" FG(FB) B2 | %1
w: Ma- gni- fi\- * cat|
w: |
w: |
w: |
w: |
w: |
 B3 A BGF !fermata!F2 | d16 | ((c2 f4)) =e2 | !fermata!f8 || f16 | (d2 !courtesy!_e4) d2 | %7
w: anima me- a Do- mi- num:|Et~exsultavit~spiritus|me\- * *|us|in~Deo~salu-|ta\- * ri|
w: |Quia~fecit~mihi~magna~qui|po\- * tens|est:|et~sanctum|no\- * men|
w: |Fecit~potentiam~in~brachio|su\- * *|o:|dispersit~superbos~mente|cor\- * dis|
w: |Esurientes~implevit|bo\- * *|nis:|et~divites~di-|mi- sit i-|
w: |Sicut~locutus~est~ad~patres|no\- * *|stros,|Abraham,~et~semini|e- ius in|
w: |Sicut~erat~in~principio,~et~nunc,~et|sem\- * *|per,|et~in~saecula~saecu-|lo\- * rum.|
 (c6 d2) | !fermata!c8 | FG B16 cc !fermata!B2 | B16 ABGG !fermata!F2 | %11
w: me\- *|o.|Qui- a respexit~humilitatem~ancillae su\- * ae:|ecce~enim~ex~hoc~beatam~me~dicent~omnes~gene- ra- ti- o\- * nes.|
w: e\- *|ius.|Et mi- sericordia~eius~a~progenie~in~pro- ge- ni- es|timen\- ti- bus e\- * um.|
w: su\- *|i.|De- po- suit~potentes~de se\- * de,|et~exal\- ta- vit hu- mi- les.|
w: na\- *|nes.|Su- sce- pit~Israel~puerum su\- * um,|recordatus~misericor\- di- ae su\- * ae.|
w: sae- cu-|la.|Glo- ri- a~Patri,~et Fi- li- o,|et~Spiri\- tu- i San\- * cto.|
w: A\- *|men.|||
V:2
[K:C] z6 | z9 |[K:Bb][K:treble] B16 | (A4 B4) | !fermata!A8 || A16 | ((B3 c/B/)) A2 B2 | %7
w: ||Et~exsultavit~spiritus|me\- *|us|in~Deo~salu-|ta\- * * * ri|
w: ||Quia~fecit~mihi~magna~qui|po- tens|est:|et~sanctum|no\- * * * men|
w: ||Fecit~potentiam~in~brachio|su\- *|o:|dispersit~superbos~mente|cor\- * * * dis|
w: ||Esurientes~implevit|bo\- *|nis:|et~divites~di-|mi\- * * sit i-|
w: ||Sicut~locutus~est~ad~patres|no\- *|stros,|Abraham,~et~semini|e\- * * ius in|
w: ||Sicut~erat~in~principio,~et~nunc,~et|sem\- *|per,|et~in~saecula~saecu-|lo\- * * * rum.|
 ((B2 AG A2)) B2 | !fermata!A8 | z22 | z22 | %11
w: me\- * * * *|o.|||
w: e\- * * * *|ius.|||
w: su\- * * * *|i.|||
w: na\- * * * *|nes.|||
w: sae\- * * * cu-|la.|||
w: A\- * * * *|men.|||
V:3
[K:C] z6 | z9 |[K:Bb][K:treble] B,16 | ((F3 D)) G4 | F8 || F16 | (G4 F2) B,2 | (F6 B,2) | %8
w: ||Et~exsultavit~spiritus|me\- * *|us|in~Deo~salu-|ta\- * ri|me\- *|
w: ||Quia~fecit~mihi~magna~qui|po\- * tens|est:|et~sanctum|no\- * men|e\- *|
w: ||Fecit~potentiam~in~brachio|su\- * *|o:|dispersit~superbos~mente|cor\- * dis|su\- *|
w: ||Esurientes~implevit|bo\- * *|nis:|et~divites~di-|mi- sit i-|na\- *|
w: ||Sicut~locutus~est~ad~patres|no\- * *|stros,|Abraham,~et~semini|e- ius in|sae- cu-|
w: ||Sicut~erat~in~principio,~et~nunc,~et|sem\- * *|per,|et~in~saecula~saecu-|lo\- * rum.|A\- *|
 !fermata!F8 | z22 | z22 | %11
w: o.|||
w: ius.|||
w: i.|||
w: nes.|||
w: la.|||
w: men.|||

